X:1
T:Title
%%score { ( 1 3 ) | ( 2 4 ) }
L:1/8
M:3/4
K:D
V:1 treble nm="Grand Piano"
V:3 treble 
V:2 bass 
V:4 bass 
V:1
 z2 z2[Q:1/4=90] F>F | F3 G FE | z z/ E/ [A,DF]2 [A,FA]>[A,FA] | [A,FA]3 [Fd] [=Fc][FB] | %4
[M:2/4] e2 A2 |[M:1/4] [CA]>[CG] |[M:3/4] F3 G FE | z z/ E/ F2 F[FA] | [Fd]3 [Fd] [Ec][DB] | %9
[M:2/4] [DB]2 [CA]2 |[M:1/4] [CA]>[CA] |[M:3/4] [DA]3 [DA] [FA][FA] | [FB]2 B2 c>c | d2 [Fd]2 e>d | %14
[M:2/4] d2 c2 |[M:1/4] [CB]>[CA] |[M:3/4] [DA]3 [A,FA] [DFA][=CFA] | [B,G]2 [B,DG]2 [B,D]>[B,DE] | %18
 [A,DF]3 [A,DF] [A,CF][K:bass][G,CE] |[M:2/4] [F,D]4 |] %20
V:2
 z2 z2 [D,A,D]>[D,A,D] | [D,A,D]3 [D,B,D] [D,A,D][D,G,C] | F,>G, D,2 D,>D, | %3
 D,3 [D,A,] [D,^G,][D,G,] |[M:2/4] [C,A,]4 |[M:1/4] [A,,A,]>[A,,A,] | %6
[M:3/4] [D,A,D]3 [D,B,D] [D,A,D][D,G,C] | F,>G, [D,A,D]2 [D,A,D][D,A,] | %8
 [D,A,]3 [B,,A,] [E,^G,][E,G,] |[M:2/4] [E,^G,]2 [A,,A,]2 |[M:1/4] [A,,G,]>[A,,G,] | %11
[M:3/4] [D,F,]3 [D,F,] [D,A,][D,A,] | [^D,A,]2 [E,G,E]2 [E,G,E]>[E,G,E] | %13
 [F,A,D]2 [D,A,]2[K:treble] [G,B,G]>[G,B,E] |[M:2/4] F2 E2 |[M:1/4][K:bass] [A,,G,]>[A,,G,] | %16
[M:3/4] [D,F,]3 D, D,D, | G,,2 G,,2 G,,>G,, | A,,3 A,, A,,A,, |[M:2/4] D,4 |] %20
V:3
 x6 | x6 | D2 z2 z2 | x6 |[M:2/4] E4 |[M:1/4] x2 |[M:3/4] x6 | D2 z2 z2 | x6 |[M:2/4] x4 | %10
[M:1/4] x2 |[M:3/4] x6 | x6 | x6 |[M:2/4] x4 |[M:1/4] x2 |[M:3/4] x6 | x6 | x5[K:bass] x | %19
[M:2/4] x4 |] %20
V:4
 x6 | x6 | D,2 z2 z2 | x6 |[M:2/4] x4 |[M:1/4] x2 |[M:3/4] x6 | D,2 z2 z2 | x6 |[M:2/4] x4 | %10
[M:1/4] x2 |[M:3/4] x6 | x6 | x4[K:treble] x2 |[M:2/4] A,4 |[M:1/4][K:bass] x2 |[M:3/4] x6 | x6 | %18
 x6 |[M:2/4] x4 |] %20

